actions/24/edit-table-insert-column-left.svg

<?xml version="1.0" encoding="UTF-8" standalone="no"?>
<svg
   width="24"
   height="24"
   viewBox="0 0 24 24"
   version="1.1"
   id="svg7"
   sodipodi:docname="edit-table-insert-column-left.svg"
   inkscape:version="1.1.2 (0a00cf5339, 2022-02-04)"
   xmlns:inkscape="http://www.inkscape.org/namespaces/inkscape"
   xmlns:sodipodi="http://sodipodi.sourceforge.net/DTD/sodipodi-0.dtd"
   xmlns="http://www.w3.org/2000/svg"
   xmlns:svg="http://www.w3.org/2000/svg">
  <sodipodi:namedview
     id="namedview9"
     pagecolor="#000000"
     bordercolor="#666666"
     borderopacity="1.0"
     inkscape:pageshadow="2"
     inkscape:pageopacity="0"
     inkscape:pagecheckerboard="0"
     showgrid="false"
     inkscape:zoom="28.416667"
     inkscape:cx="11.982405"
     inkscape:cy="11.964809"
     inkscape:window-width="1886"
     inkscape:window-height="967"
     inkscape:window-x="0"
     inkscape:window-y="29"
     inkscape:window-maximized="1"
     inkscape:current-layer="svg7" />
  <defs
     id="defs3">
    <style
       id="current-color-scheme"
       type="text/css">
   .ColorScheme-Text { color:#eeeeec; } .ColorScheme-Highlight { color:#367bf0; } .ColorScheme-NeutralText { color:#ffcc44; } .ColorScheme-PositiveText { color:#3db47e; } .ColorScheme-NegativeText { color:#dd4747; }
  </style>
  </defs>
  <path
     style="fill:currentColor"
     class="ColorScheme-Text"
     d="M 7,1 V 3 H 9 V 5 H 7 V 7 H 9 V 9 H 7 v 2 h 2 v 2 H 7 v 2 h 8 V 1 Z M 1,2 V 9 H 2.2366883 V 9 L 2.3503965,8.6315965 2,8.2812 V 6.2832042 L 2.2812,6 v 0 l 1,1 L 5,8.7188 V 9 H 6 V 2 H 5 V 2.7641534 L 4.7188,3 v 0 l -1,-1 H 2.7632931 V 2 L 2.693506,2.412306 3.2812,3 5,4.7188 v 2.0574992 0 L 4.7188,7 3.7188,6 2,4.2812 V 2 Z m 10,1 h 2 v 2 h -2 z m 0,4 h 2 v 2 h -2 z m -6.6128671,3.306434 v 0 l -2.6592834,1.329641 v 0 l 0.05802,0.75686 L 4.360438,13.680219 5,13.391901 v 0 -2.709349 z M 11,11 h 2 v 2 h -2 z"
     transform="translate(4,4)"
     id="path5"
     sodipodi:nodetypes="ccccccccccccccccccccccccccccccccccccccccccccccccccccccccccccccccccccccccc" />
</svg>

<svg xmlns="http://www.w3.org/2000/svg" width="24" height="24" viewBox="0 0 24 24">
 <defs>
  <style id="current-color-scheme" type="text/css">
   .ColorScheme-Text { color:#eeeeec; } .ColorScheme-Highlight { color:#367bf0; } .ColorScheme-NeutralText { color:#ffcc44; } .ColorScheme-PositiveText { color:#3db47e; } .ColorScheme-NegativeText { color:#dd4747; }
  </style>
 </defs>
 <path style="fill:currentColor" class="ColorScheme-Text" d="m7 1v2h2v2h-2v2h2v2h-2v2h2v2h-2v2h8v-14h-8zm-6 1v7h1.7188l-0.7188-0.7188v-2.5624l0.2812 0.2812 1 1 1.7188 1.7188v0.2812h1v-7h-1v1.2812l-0.2812-0.2812-1-1h-1.4376l1 1 1.7188 1.7188v2.5624l-0.2812-0.2812-1-1-1.7188-1.7188v-2.2812h-1zm10 1h2v2h-2v-2zm0 4h2v2h-2v-2zm-6 3l-4 2 4 2v-4zm6 1h2v2h-2v-2z" transform="translate(4 4)"/>
</svg>
